canopeum_frontend/src/assets/icons/site-type-farm-land.svg

<svg width="24" height="24" viewBox="0 0 24 24" fill="none" xmlns="http://www.w3.org/2000/svg">
<path fill-rule="evenodd" clip-rule="evenodd" d="M13.7483 3.74463L12.0036 2L10.259 3.74463C9.46643 4.53721 9.0205 5.61176 9.01902 6.73265C9.01851 7.11649 9.07014 7.49503 9.16999 7.85881C8.93925 7.81999 8.70424 7.80013 8.46721 7.80014H6V10.2207C6 11.2901 6.40461 12.3178 7.12907 13.0991H6V15.557C6 16.6799 6.44604 17.7567 7.24 18.5507C8.03395 19.3446 9.11079 19.7907 10.2336 19.7907H11.299V22.6224H12.7008V19.8H13.7569C14.3129 19.8 14.8634 19.6905 15.3771 19.4777C15.8907 19.265 16.3574 18.9531 16.7506 18.56C17.1437 18.1669 17.4555 17.7002 17.6683 17.1865C17.881 16.6729 17.9906 16.1223 17.9906 15.5664V13.0991H16.9055C17.6059 12.3252 17.9973 11.3175 18 10.2693V7.8002L15.5327 7.80014L15.5234 7.80027C15.2912 7.80334 15.0611 7.82548 14.8354 7.86578C14.936 7.50166 14.9883 7.12265 14.9883 6.73824C14.9883 5.61542 14.5422 4.53858 13.7483 3.74463ZM11.299 11.9879C11.287 11.2465 10.9846 10.5391 10.4566 10.0181C9.92657 9.49513 9.21192 9.20194 8.46733 9.202H7.40186V10.2207C7.40186 10.9717 7.7002 11.692 8.23126 12.223C8.76232 12.7541 9.48259 13.0524 10.2336 13.0524H11.299V11.9879ZM11.299 17.3123C11.2936 16.5672 10.9948 15.8541 10.467 15.3277C9.93614 14.7983 9.21701 14.501 8.46727 14.501H7.40186V15.557C7.40186 16.3081 7.7002 17.0283 8.23126 17.5594C8.76232 18.0904 9.48259 18.3888 10.2336 18.3888H11.299V17.3123ZM12.7009 17.3234L12.7009 18.3981H13.7569C14.1288 18.3981 14.497 18.3249 14.8406 18.1826C15.1842 18.0403 15.4963 17.8317 15.7593 17.5687C16.0222 17.3058 16.2308 16.9936 16.3731 16.65C16.5154 16.3065 16.5887 15.9383 16.5887 15.5664V14.501H15.5243C14.7748 14.5032 14.0569 14.8024 13.5276 15.333C13.0006 15.8614 12.7036 16.5765 12.7009 17.3225L12.7009 17.3234ZM11.2503 4.73589L12.0036 3.98253L12.757 4.73589C13.2881 5.26695 13.5864 5.98722 13.5864 6.73824C13.5864 7.48927 13.2881 8.20954 12.757 8.7406L12.0036 9.49396L11.2443 8.73463C10.716 8.20315 10.4199 7.48392 10.4209 6.7345C10.4219 5.98477 10.7201 5.26603 11.2503 4.73589ZM15.5376 9.20206H16.5981V10.2665C16.596 11.0095 16.3019 11.7219 15.7794 12.2501C15.2576 12.7774 14.5498 13.0789 13.8082 13.0899H12.7477V12.0338C12.7476 11.2892 13.0408 10.5745 13.5638 10.0445C14.0857 9.51558 14.7947 9.21304 15.5376 9.20206Z" fill="currentColor"/>
</svg>

<svg width="24" height="24" fill="none" xmlns="http://www.w3.org/2000/svg">
  <path fill-rule="evenodd" clip-rule="evenodd"
    d="M13.748 3.745L12.004 2l-1.745 1.745A4.234 4.234 0 009.17 7.859a4.234 4.234 0 00-.703-.059H6v2.42c0 1.07.405 2.098 1.13 2.88H6v2.457a4.234 4.234 0 004.234 4.234h1.065v2.831h1.402V19.8h1.056a4.233 4.233 0 004.234-4.234V13.1h-1.085A4.234 4.234 0 0018 10.27V7.8h-2.477a4.233 4.233 0 00-.688.066 4.233 4.233 0 00-1.087-4.121zM11.3 11.988a2.832 2.832 0 00-2.832-2.786H7.402v1.019a2.832 2.832 0 002.832 2.831h1.065v-1.064zm0 5.324a2.832 2.832 0 00-2.832-2.811H7.402v1.056a2.832 2.832 0 002.832 2.832h1.065v-1.077zm1.402.011v1.075h1.056a2.832 2.832 0 002.832-2.832v-1.065h-1.065a2.832 2.832 0 00-2.823 2.822zM11.25 4.736l.753-.753.753.753a2.832 2.832 0 010 4.005l-.753.753-.76-.76a2.832 2.832 0 01.006-3.998zm4.287 4.466h1.06v1.065a2.832 2.832 0 01-2.79 2.823h-1.06v-1.056a2.832 2.832 0 012.79-2.832z"
    fill="currentColor" />
</svg>
